Pods/ProtonCore-UIFoundations/libraries/UIFoundations/Sources/Assets.xcassets/Images/IconSet/ic-brand-tor.imageset/ic-brand-tor.svg

<svg width="24" height="24" viewBox="0 0 24 24" fill="none" xmlns="http://www.w3.org/2000/svg">
<path fill-rule="evenodd" clip-rule="evenodd" d="M12 1.5C12.3067 1.5 12.5825 1.68671 12.6964 1.97146C13.37 3.65562 14.5843 4.78597 15.873 5.74687C16.1951 5.98702 16.5179 6.21389 16.8382 6.43757C16.8726 6.46159 16.907 6.48561 16.9415 6.50962C17.2243 6.70701 17.5067 6.90404 17.773 7.09935C18.3625 7.5317 18.938 8.00078 19.3502 8.54957C20.386 9.92848 21 11.6436 21 13.5C21 15.8136 19.8599 18.0574 18.2086 19.7086C16.5574 21.3599 14.3136 22.5 12 22.5C9.68642 22.5 7.44259 21.3599 5.79137 19.7086C4.14015 18.0574 3 15.8136 3 13.5C3 11.6436 3.61404 9.92848 4.64978 8.54957C5.06199 8.00078 5.63748 7.5317 6.22699 7.09935C6.4933 6.90404 6.77567 6.70701 7.05855 6.50962C7.09296 6.48561 7.12738 6.46159 7.16178 6.43757C7.48211 6.21389 7.80495 5.98702 8.12702 5.74687C9.41569 4.78597 10.63 3.65562 11.3036 1.97146C11.4175 1.68671 11.6933 1.5 12 1.5ZM7.11409 8.30892C6.54397 8.72705 6.12107 9.08839 5.84913 9.45043C5.0018 10.5785 4.5 11.9796 4.5 13.5C4.5 15.3286 5.41378 17.2097 6.85203 18.648C7.49187 19.2878 8.21938 19.8239 8.99091 20.2218C8.72839 19.9304 8.48633 19.607 8.26811 19.2605C7.34149 17.789 6.75 15.772 6.75 13.5C6.75 11.7553 7.42637 10.4331 8.08005 9.15528C8.16396 8.99126 8.2475 8.82796 8.32918 8.66459C8.74669 7.82957 9.11435 7.24273 9.447 6.71179C9.48324 6.65395 9.51906 6.59677 9.55449 6.54001C9.37685 6.6822 9.19937 6.81836 9.02366 6.94938C8.68119 7.20475 8.34153 7.44327 8.02056 7.66741C7.98594 7.69158 7.95158 7.71556 7.91748 7.73935C7.63231 7.93836 7.36518 8.12478 7.11409 8.30892ZM11.25 6.63409C11.0508 6.99063 10.8465 7.31861 10.6387 7.65225C10.3225 8.15999 9.9981 8.68084 9.67082 9.33541C9.58425 9.50854 9.49944 9.67559 9.41705 9.83786C8.75523 11.1414 8.25 12.1365 8.25 13.5C8.25 15.5236 8.77886 17.2566 9.53742 18.4612C10.071 19.3086 10.6755 19.8375 11.25 20.0845V6.63409ZM12.75 20.95C14.3335 20.7409 15.9059 19.89 17.148 18.648C18.5862 17.2097 19.5 15.3286 19.5 13.5C19.5 11.9796 18.9982 10.5785 18.1509 9.45043C17.8789 9.08839 17.456 8.72705 16.8859 8.30892C16.6348 8.12477 16.3677 7.93835 16.0825 7.73933C16.0484 7.71554 16.014 7.69157 15.9794 7.66741C15.6585 7.44327 15.3188 7.20475 14.9763 6.94938C14.2248 6.38899 13.4409 5.73446 12.75 4.91648V20.95Z" fill="#0C0C14"/>
</svg>

<svg xmlns="http://www.w3.org/2000/svg" width="24" height="24" viewBox="0 0 24 24">
  <g class="ic-brand-tor">
    <path fill-rule="evenodd" d="M12 1.5a.75.75 0 0 1 .696.471c.674 1.685 1.888 2.815 3.177 3.776a38.033 38.033 0 0 0 1.069.763c.282.197.565.394.831.59.59.432 1.165.9 1.577 1.45A8.216 8.216 0 0 1 21 13.5c0 2.314-1.14 4.557-2.791 6.209C16.557 21.359 14.314 22.5 12 22.5c-2.314 0-4.557-1.14-6.209-2.791C4.141 18.057 3 15.814 3 13.5c0-1.856.614-3.572 1.65-4.95.412-.55.987-1.018 1.577-1.45.266-.196.549-.393.832-.59l.103-.072c.32-.224.643-.451.965-.691 1.289-.961 2.503-2.091 3.177-3.776A.75.75 0 0 1 12 1.5ZM7.114 8.309c-.57.418-.993.78-1.265 1.141A6.717 6.717 0 0 0 4.5 13.5c0 1.829.914 3.71 2.352 5.148a8.664 8.664 0 0 0 2.139 1.574 7.049 7.049 0 0 1-.723-.962c-.927-1.47-1.518-3.487-1.518-5.76 0-1.745.676-3.067 1.33-4.345.084-.164.168-.327.25-.49a21.42 21.42 0 0 1 1.117-1.953l.107-.172c-.177.142-.355.278-.53.41a39.366 39.366 0 0 1-1.107.79 39.18 39.18 0 0 0-.803.569Zm4.136-1.675c-.2.357-.403.685-.611 1.018-.316.508-.64 1.029-.968 1.683l-.254.503C8.755 11.14 8.25 12.137 8.25 13.5c0 2.024.529 3.757 1.287 4.961.534.848 1.138 1.377 1.713 1.623V6.634Zm1.5 14.316c1.584-.21 3.156-1.06 4.398-2.302 1.438-1.438 2.352-3.32 2.352-5.148 0-1.52-.502-2.921-1.35-4.05-.271-.362-.694-.723-1.264-1.141-.251-.184-.518-.37-.803-.57a39.545 39.545 0 0 1-1.106-.79c-.752-.56-1.536-1.215-2.227-2.033V20.95Z" class="Icon"/>
  </g>
</svg>
